X: 115
T: No_42_A_Cloud.krn
%%abc-version 2.0
%%abcx-abcm2ps-target-version 5.9.1 (29 Sep 2008)
%%abc-creator hum2abc beta
%%abcx-conversion-date 2020/08/10 18:54:56
%%gracespace 0 6 6
%%humdrum-veritas 1796437361
%%humdrum-veritas-data 626803608
%%linebreak <none>
%%barnumbers 0
L: 1/8
M: 2/4
%%staves {1 2}
V: 1 clef=bass
V: 2 clef=bass
K: A
[V:1] E(3:2:2E/E [I:setbarnb 1]| 
[V:2] z2 | 
[V:1] F2F3/F/ | 
[V:2] !accent!G,,G,, !accent!G,,G,, | 
[V:1] F2E3/E/ | 
[V:2] !accent!G,,G,, !accent!G,,G,, | 
[V:1] C2E(3:2:2E/E | 
[V:2] z4 | 
[V:1] C<A, A,3/A,/ | 
[V:2] z4 | 
[V:1] A,4 | 
[V:2] z4 | 
[V:1] A,2A,2- ||  
[V:2] z4 ||  
[V:1] [M:3/4]A,4E(3:2:2E/E ||  
[V:2] [M:3/4]z6 ||  
[V:1] [M:2/4]C2C3/C/ | 
[V:2] [M:2/4]z4 | 
[V:1] C2(3CB,B, | 
[V:2] z4 | 
[V:1] A,2_B,(3:2:2B,/B, | 
[V:2] z4 | 
[V:1] =C<A, A,3/A,/ ||  
[V:2] z4 ||  
[V:1] [M:3/4]A,4E,(3:2:2E,/E, ||  
[V:2] [M:3/4]z6 ||  
[V:1] [M:2/4]=F,2F,3/F,/ | 
[V:2] [M:2/4]z4 | 
[V:1] =F,2E,3/E,/ | 
[V:2] z4 | 
[V:1] C,2E,(3:2:2E,/E, | 
[V:2] z4 | 
[V:1] C,<A,, A,,3/A,,/ | 
[V:2] z4 | 
[V:1] A,,4 |]  
[V:2] z4 |]  


